src/assets/Images/Insights/main-insights-denton-hong-kong-logo.svg

<svg width="100" height="26" viewBox="0 0 100 26" fill="none" xmlns="http://www.w3.org/2000/svg">
<g clip-path="url(#clip0_386_673)">
<path d="M99.4907 11.3241L89.8194 1.65278C88.5926 0.425926 87.3287 0 85.3611 0H1.74074C0.782407 0 0 0.782407 0 1.74074V23.3704C0 24.3287 0.782407 25.1111 1.74074 25.1111H85.3611C87.3287 25.1111 88.5926 24.6852 89.8194 23.4583L99.4907 13.787C100.167 13.1111 100.167 12.0046 99.4907 11.3287V11.3241Z" fill="#702082"/>
<path d="M8.55566 17.5272V7.57812H12.4168C15.8566 7.57812 17.2733 9.50868 17.2733 12.5503C17.2733 15.592 15.8612 17.5226 12.4168 17.5226H8.55566V17.5272ZM12.3566 15.5596C14.426 15.5596 15.0418 14.3281 15.0418 12.555C15.0418 10.7818 14.426 9.55035 12.3566 9.55035H10.7825V15.5596H12.3566Z" fill="white"/>
<path d="M27.0509 13.4485H22.3333V15.5596H27.6851V17.5272H20.1064V7.57812H27.6851V9.54572H22.3333V11.5133H27.0509V13.4439V13.4485Z" fill="white"/>
<path d="M37.829 17.5272L32.7734 11.1985L32.8753 17.5272H30.6484V7.57812H32.5003L37.5744 13.9068L37.454 7.57812H39.6808V17.5272H37.829Z" fill="white"/>
<path d="M47.6482 9.5506V17.5275H45.4213V9.5506H42.2593V7.58301H50.8148V9.5506H47.6528H47.6482Z" fill="white"/>
<path d="M57.5972 7.3418C61.0787 7.3418 62.5694 9.27235 62.5694 12.5548C62.5694 15.8372 61.0787 17.7677 57.5972 17.7677C54.1157 17.7677 52.625 15.8372 52.625 12.5548C52.625 9.27235 54.1157 7.3418 57.5972 7.3418ZM57.5972 9.27235C55.5093 9.27235 54.8704 10.527 54.8704 12.5548C54.8704 14.5825 55.5093 15.8372 57.5972 15.8372C59.6852 15.8372 60.3241 14.5825 60.3241 12.5548C60.3241 10.527 59.6898 9.27235 57.5972 9.27235Z" fill="white"/>
<path d="M72.5604 17.5272L67.5049 11.1985L67.6067 17.5272H65.3799V7.57812H67.2317L72.3058 13.9068L72.1854 7.57812H74.4123V17.5272H72.5604Z" fill="white"/>
<path d="M79.4953 10.5228C79.4953 11.2589 80.0508 11.4163 81.486 11.5367C84.4721 11.796 85.3657 12.4302 85.3657 14.5413C85.3657 16.333 84.2129 17.7636 80.9305 17.7636C79.9351 17.7636 78.1851 17.5043 77.486 17.1849V15.1756C78.2823 15.495 79.6157 15.7728 80.949 15.7728C82.5786 15.7728 83.1573 15.3562 83.1573 14.5367C83.1573 13.7173 82.6388 13.4812 81.2082 13.3608C78.2221 13.1015 77.3286 12.4441 77.3286 10.5182C77.3286 8.59227 78.5601 7.33301 81.5092 7.33301C82.5045 7.33301 84.0555 7.51356 84.9119 7.88856V9.89782C84.0184 9.55986 82.8008 9.31912 81.4907 9.31912C80.0184 9.31912 79.4999 9.6756 79.4999 10.5136L79.4953 10.5228Z" fill="white"/>
</g>
<defs>
<clipPath id="clip0_386_673">
<rect width="100" height="25.1111" fill="white"/>
</clipPath>
</defs>
</svg>

<svg width="100" height="26" fill="none" xmlns="http://www.w3.org/2000/svg"><g clip-path="url(#a)"><path d="m99.49 11.324-9.67-9.671C88.592.426 87.328 0 85.36 0H1.741C.782 0 0 .782 0 1.74v21.63c0 .959.782 1.741 1.74 1.741h83.621c1.968 0 3.232-.426 4.458-1.653l9.672-9.671a1.743 1.743 0 0 0 0-2.458v-.005Z" fill="#702082"/><path d="M8.556 17.527V7.578h3.86c3.44 0 4.857 1.93 4.857 4.972 0 3.042-1.412 4.973-4.856 4.973H8.556v.004Zm3.8-1.967c2.07 0 2.686-1.232 2.686-3.005s-.616-3.005-2.685-3.005h-1.574v6.01h1.574ZM27.05 13.448h-4.717v2.112h5.352v1.967h-7.579V7.578h7.58v1.968h-5.353v1.967h4.718V13.448ZM37.829 17.527l-5.056-6.329.102 6.33h-2.227v-9.95H32.5l5.074 6.329-.12-6.329h2.227v9.95h-1.852ZM47.648 9.55v7.977h-2.227V9.552H42.26V7.583h8.556v1.968h-3.167ZM57.597 7.342c3.482 0 4.972 1.93 4.972 5.213 0 3.282-1.49 5.213-4.972 5.213-3.481 0-4.972-1.93-4.972-5.213 0-3.283 1.49-5.213 4.972-5.213Zm0 1.93c-2.088 0-2.727 1.255-2.727 3.283 0 2.027.64 3.282 2.727 3.282 2.088 0 2.727-1.255 2.727-3.282 0-2.028-.634-3.283-2.727-3.283ZM72.56 17.527l-5.055-6.329.102 6.33H65.38v-9.95h1.852l5.074 6.329-.12-6.329h2.226v9.95H72.56ZM79.495 10.523c0 .736.556.893 1.991 1.014 2.986.259 3.88.893 3.88 3.004 0 1.792-1.153 3.223-4.436 3.223-.995 0-2.745-.26-3.444-.58v-2.008c.796.319 2.13.597 3.463.597 1.63 0 2.208-.417 2.208-1.236 0-.82-.518-1.056-1.949-1.176-2.986-.26-3.88-.917-3.88-2.843s1.232-3.185 4.181-3.185c.995 0 2.546.18 3.403.556v2.009c-.894-.338-2.111-.579-3.421-.579-1.473 0-1.991.357-1.991 1.195l-.005.009Z" fill="#fff"/></g><defs><clipPath id="a"><path fill="#fff" d="M0 0h100v25.111H0z"/></clipPath></defs></svg>
